T: Last Night's Fun
M: 4/4
L: 1/8
K: Dmaj
ADFD ~A3B|ADFD EFGB|ADFD A2 (3Bcd|1 e2fe dBBd:|2 e2fe dBAB||df~f2 af~f2|1 df~f2 egfe|df~f2 af~f2|egfe dBAB:|2 df~f2 e2fg| ~a3b afeg|fedc BcdB||
